X: 30299
T: Old Man Dillon
R: jig
M: 6/8
K: Adorian
EAA ABd|edB cBA|BGG DGG|Bdc BAG|
EAA ABd|ede a2g|edc Bcd|1 e2A BAG:|2 eab ~a3||
gef g2a|gef gdc|BGG DGG|Bdc BAG|
gef g2a|gef ged|edc Bcd|eab ~a3|
gef g2a|gef gdc|BGG DGG|Bdc BAG|
EAA ABd|ede a2g|edc Bcd|e2A BAG||

